packages/icons/src/arrow-circlepath.svg

<svg width="24" height="24" viewBox="0 0 24 24" fill="none" xmlns="http://www.w3.org/2000/svg">
<path d="M19.7781 4.22164L17.6568 6.34296C14.5314 3.21755 9.46852 3.21755 6.34311 6.34296C6.18984 6.49623 6.04425 6.65422 5.90631 6.81644C4.71748 8.21265 4 10.0225 4 12C4 16.4183 7.58172 20 12 20C16.4183 20 20 16.4183 20 12H18C18 15.3137 15.3137 18 12 18C8.68629 18 6 15.3137 6 12C6 11.3847 6.09263 10.7909 6.26472 10.232H6.2724C6.39686 9.81282 6.57138 9.40422 6.79385 9.01536C7.34122 8.06264 8.14258 7.27441 9.10553 6.74308C10.9112 5.74922 13.1229 5.75471 14.9241 6.75954C14.9495 6.77375 14.9748 6.78814 15 6.80271C15.4444 7.05926 15.8628 7.37735 16.2426 7.75717L14.1213 9.87849H19.7781V4.22164Z" fill="black"/>
</svg>

<svg xmlns="http://www.w3.org/2000/svg" width="24" height="24" fill="none" viewBox="0 0 24 24">
  <path fill="#000" d="m19.778 4.222-2.121 2.121a7.998 7.998 0 0 0-11.75.473A8 8 0 1 0 20 12h-2.001a6 6 0 1 1-11.735-1.768h.007c.125-.42.3-.828.522-1.217a6.029 6.029 0 0 1 2.312-2.272 6.021 6.021 0 0 1 5.894.06c.444.256.863.574 1.243.954L14.12 9.878h5.657V4.222Z"/>
</svg>
